src/assets/images/icn-fee.svg

<svg viewBox="0 0 26 26" fill="none" xmlns="http://www.w3.org/2000/svg">
  <g id="icons vector_miner-fee-13">
    <path
      id="Path"
      fill-rule="evenodd"
      clip-rule="evenodd"
      d="M10.807 21.1515H3.94989C2.43505 21.1515 1.20703 19.94 1.20703 18.4456V4.23972C1.20703 2.7453 2.43505 1.53383 3.94989 1.53383H11.4173C12.4022 1.53047 13.3459 1.92385 14.0299 2.62295L15.9773 4.61178C16.628 5.27617 16.9919 6.16382 16.9922 7.08766V9.65148L10.8207 13.0338L10.807 21.1515Z"
      fill="#1EB8E7"
      stroke="#163150"
      stroke-width="1.37143"
      stroke-linecap="round"
      stroke-linejoin="round"
    />
    <path
      id="Path_2"
      fill-rule="evenodd"
      clip-rule="evenodd"
      d="M14.1326 2.73794L15.8537 4.49676C16.0475 4.69179 16.1034 4.98264 15.9954 5.23412C15.8875 5.4856 15.6368 5.64836 15.36 5.64676H12.9531V3.21147C12.9514 2.93485 13.1206 2.68508 13.3804 2.58081C13.6401 2.47653 13.938 2.53876 14.1326 2.73794Z"
      fill="#163150"
      stroke="#163150"
      stroke-width="1.37143"
      stroke-linecap="round"
      stroke-linejoin="round"
    />
    <g id="Group" opacity="0.7">
      <path
        id="Shape"
        fill-rule="evenodd"
        clip-rule="evenodd"
        d="M3.05956 6.79676C2.62973 6.42033 2.39115 5.87529 2.40813 5.30852C2.38234 4.74401 2.62286 4.19951 3.05956 3.83382C3.53102 3.45079 4.12937 3.25323 4.73956 3.27911C5.34975 3.25323 5.9481 3.45079 6.41956 3.83382C6.85431 4.19802 7.09463 4.73958 7.07099 5.30176C7.08797 5.86853 6.8494 6.41357 6.41956 6.78999C5.9481 7.17302 5.34975 7.37059 4.73956 7.3447C4.13026 7.37248 3.53201 7.17736 3.05956 6.79676ZM3.95099 5.30852C3.93756 5.51235 4.01821 5.71124 4.17042 5.8497C4.32569 5.98334 4.52679 6.0535 4.7327 6.04588C4.94338 6.05776 5.15033 5.98728 5.3087 5.8497C5.45444 5.7074 5.53177 5.51055 5.52127 5.30852C5.53026 5.11271 5.45271 4.92269 5.3087 4.78764C4.97584 4.52538 4.50328 4.52538 4.17042 4.78764C4.01626 4.9177 3.92838 5.10842 3.93042 5.30852H3.95099ZM4.06756 10.5241L5.01385 11.1668L10.479 3.95558L9.55327 3.27911L4.06756 10.5241ZM8.16813 10.6121C7.73642 10.2341 7.49767 9.68616 7.5167 9.11705C7.49306 8.55487 7.73338 8.01332 8.16813 7.64911C8.63829 7.26378 9.23757 7.06591 9.84813 7.09441C10.4587 7.06591 11.058 7.26378 11.5281 7.64911C11.9629 8.01332 12.2032 8.55487 12.1796 9.11705C12.1986 9.68616 11.9598 10.2341 11.5281 10.6121C11.058 10.9974 10.4587 11.1953 9.84813 11.1668C9.22969 11.1985 8.62202 10.9979 8.14756 10.6053L8.16813 10.6121ZM9.27899 9.66499C9.12483 9.52501 9.04401 9.32318 9.05956 9.11705H9.04585C9.0421 8.91804 9.12738 8.72751 9.27899 8.59617C9.61185 8.33391 10.0844 8.33391 10.4173 8.59617C10.5613 8.73122 10.6388 8.92124 10.6298 9.11705C10.6414 9.32125 10.5641 9.52061 10.4173 9.66499C10.2589 9.80257 10.052 9.87305 9.84127 9.86117C9.63536 9.86879 9.43426 9.79863 9.27899 9.66499Z"
        fill="#007FC6"
      />
    </g>
    <path
      id="Path_3"
      fill-rule="evenodd"
      clip-rule="evenodd"
      d="M5.76858 16.8085C5.77413 19.7115 7.46795 22.3537 10.1242 23.6029C12.7804 24.8521 15.9277 24.4866 18.2172 22.663C20.5068 20.8394 21.5323 17.8813 20.8543 15.0565L13.4486 16.4906L17.3229 10.3415C14.9616 8.94761 12.0228 8.91434 9.62975 10.2544C7.23666 11.5944 5.75909 14.1007 5.76172 16.8153L5.76858 16.8085Z"
      fill="url(#paint0_radial)"
    />
    <path
      id="Path_4"
      fill-rule="evenodd"
      clip-rule="evenodd"
      d="M18.7122 15.4691C19.3646 17.9686 18.1369 20.5748 15.7796 21.6945C13.4223 22.8142 10.5916 22.1359 9.01767 20.0741C7.44379 18.0122 7.56487 15.1409 9.30692 13.2152C11.049 11.2895 13.9271 10.8454 16.1819 12.1544L13.2677 16.3282L18.7122 15.4691Z"
      fill="#FFC835"
      stroke="#FFAE25"
      stroke-width="1.09714"
      stroke-linecap="round"
      stroke-linejoin="round"
    />
    <path
      id="Path_5"
      fill-rule="evenodd"
      clip-rule="evenodd"
      d="M5.76858 16.8085C5.77413 19.7115 7.46795 22.3537 10.1242 23.6029C12.7804 24.8521 15.9277 24.4866 18.2172 22.663C20.5068 20.8394 21.5323 17.8813 20.8543 15.0565L13.4486 16.4906L17.3229 10.3415C14.9616 8.94761 12.0228 8.91434 9.62975 10.2544C7.23666 11.5944 5.75909 14.1007 5.76172 16.8153L5.76858 16.8085Z"
      stroke="#163150"
      stroke-width="1.37143"
      stroke-linecap="round"
      stroke-linejoin="round"
    />
    <path
      id="Path_6"
      fill-rule="evenodd"
      clip-rule="evenodd"
      d="M25.0014 12.3236C24.5251 10.3412 23.2563 8.63326 21.4837 7.58826L17.6094 13.7374L25.0014 12.3236Z"
      fill="url(#paint1_radial)"
    />
    <path
      id="Path_7"
      fill-rule="evenodd"
      clip-rule="evenodd"
      d="M22.8421 12.7565C22.4786 11.3638 21.5682 10.1711 20.3118 9.44177L18.3164 13.1624L22.8421 12.7565Z"
      fill="#FFC835"
      stroke="#FFAE25"
      stroke-width="1.09714"
      stroke-linecap="round"
      stroke-linejoin="round"
    />
    <path
      id="Path_8"
      fill-rule="evenodd"
      clip-rule="evenodd"
      d="M25.0014 12.3236C24.5251 10.3412 23.2563 8.63326 21.4837 7.58826L17.6094 13.7374L25.0014 12.3236Z"
      stroke="#163150"
      stroke-width="1.37143"
      stroke-linecap="round"
      stroke-linejoin="round"
    />
  </g>
  <defs>
    <radialGradient
      id="paint0_radial"
      cx="0"
      cy="0"
      r="1"
      gradientUnits="userSpaceOnUse"
      gradientTransform="translate(13.4143 16.8085) scale(7.64571 7.5289)"
    >
      <stop offset="0.06" stop-color="#FFEA80" />
      <stop offset="0.11" stop-color="#FFE77D" />
      <stop offset="0.47" stop-color="#FFD76C" />
      <stop offset="0.73" stop-color="#FFD166" />
    </radialGradient>
    <radialGradient
      id="paint1_radial"
      cx="0"
      cy="0"
      r="1"
      gradientUnits="userSpaceOnUse"
      gradientTransform="translate(21.2711 10.7) scale(3.42171 2.84639)"
    >
      <stop offset="0.06" stop-color="#FFEA80" />
      <stop offset="0.11" stop-color="#FFE77D" />
      <stop offset="0.47" stop-color="#FFD76C" />
      <stop offset="0.73" stop-color="#FFD166" />
    </radialGradient>
  </defs>
</svg>

<svg xmlns="http://www.w3.org/2000/svg" width="26" height="25" viewBox="0 0 26 25">
    <defs>
        <radialGradient id="a" cx="50.022%" cy="50.026%" r="50.752%" fx="50.022%" fy="50.026%" gradientTransform="matrix(.98472 0 0 1 .008 0)">
            <stop offset="6%" stop-color="#FFEA80"/>
            <stop offset="11%" stop-color="#FFE77D"/>
            <stop offset="47%" stop-color="#FFD76C"/>
            <stop offset="73%" stop-color="#FFD166"/>
        </radialGradient>
        <radialGradient id="b" cx="49.536%" cy="50.605%" r="55.646%" fx="49.536%" fy="50.605%" gradientTransform="matrix(.83186 0 0 1 .083 0)">
            <stop offset="6%" stop-color="#FFEA80"/>
            <stop offset="11%" stop-color="#FFE77D"/>
            <stop offset="47%" stop-color="#FFD76C"/>
            <stop offset="73%" stop-color="#FFD166"/>
        </radialGradient>
    </defs>
    <g fill="none" fill-rule="evenodd">
        <path fill="#1EB8E7" stroke="#163150" stroke-linecap="round" stroke-linejoin="round" stroke-width="1.371" d="M10.806 21.151H3.949c-1.515 0-2.743-1.211-2.743-2.705V4.24c0-1.495 1.228-2.706 2.743-2.706h7.467a3.638 3.638 0 0 1 2.613 1.089l1.947 1.989a3.54 3.54 0 0 1 1.015 2.476V9.65l-6.172 3.383-.013 8.117z"/>
        <path fill="#163150" stroke="#163150" stroke-linecap="round" stroke-linejoin="round" stroke-width="1.371" d="M14.131 2.738l1.722 1.759a.67.67 0 0 1 .141.737.686.686 0 0 1-.635.413h-2.407V3.21a.676.676 0 0 1 .427-.63.692.692 0 0 1 .752.157z"/>
        <path fill="#007FC6" fill-rule="nonzero" d="M3.057 6.797a1.903 1.903 0 0 1-.651-1.488 1.815 1.815 0 0 1 .651-1.475 2.497 2.497 0 0 1 1.68-.555 2.497 2.497 0 0 1 1.68.555c.435.364.675.906.652 1.468a1.903 1.903 0 0 1-.652 1.488c-.471.383-1.07.58-1.68.555a2.498 2.498 0 0 1-1.68-.548zm.892-1.488a.672.672 0 0 0 .219.54.816.816 0 0 0 .562.197.81.81 0 0 0 .576-.196.705.705 0 0 0 .213-.541.672.672 0 0 0-.213-.521.922.922 0 0 0-1.138 0 .673.673 0 0 0-.24.52h.02zm1.062 5.858l-.946-.643L9.551 3.28l.926.677-5.466 7.21zm3.155-.555a1.902 1.902 0 0 1-.652-1.495 1.816 1.816 0 0 1 .652-1.468 2.47 2.47 0 0 1 1.68-.555 2.47 2.47 0 0 1 1.68.555c.434.364.675.906.651 1.468.02.57-.22 1.117-.651 1.495a2.47 2.47 0 0 1-1.68.555 2.47 2.47 0 0 1-1.7-.562l.02.007zm.891-1.495a.672.672 0 0 0 .22.548.816.816 0 0 0 .562.196.81.81 0 0 0 .576-.196.712.712 0 0 0 .212-.548.672.672 0 0 0-.212-.52.922.922 0 0 0-1.138 0 .672.672 0 0 0-.234.52h.014z" opacity=".7"/>
        <path fill="url(#a)" d="M4.766 15.309c.005 2.902 1.7 5.545 4.355 6.794a7.73 7.73 0 0 0 8.093-.94 7.486 7.486 0 0 0 2.637-7.607l-7.405 1.435 3.874-6.15a7.73 7.73 0 0 0-7.693-.087 7.519 7.519 0 0 0-3.868 6.561l.007-.006z" transform="translate(1 1.5)"/>
        <path fill="#FFC835" stroke="#FFAE25" stroke-linecap="round" stroke-linejoin="round" stroke-width="1.097" d="M18.712 15.47c.652 2.499-.575 5.105-2.933 6.225-2.357 1.12-5.188.44-6.762-1.62a5.356 5.356 0 0 1 .29-6.86c1.742-1.926 4.62-2.37 6.875-1.06l-2.915 4.173 5.445-.859z"/>
        <path stroke="#163150" stroke-linecap="round" stroke-linejoin="round" stroke-width="1.371" d="M5.766 16.809c.005 2.902 1.7 5.545 4.355 6.794a7.73 7.73 0 0 0 8.093-.94 7.486 7.486 0 0 0 2.637-7.607l-7.405 1.435 3.874-6.15a7.73 7.73 0 0 0-7.693-.087 7.519 7.519 0 0 0-3.868 6.561l.007-.006z"/>
        <path fill="url(#b)" d="M24 10.824a7.55 7.55 0 0 0-3.518-4.736l-3.874 6.15L24 10.823z" transform="translate(1 1.5)"/>
        <path fill="#FFC835" stroke="#FFAE25" stroke-linecap="round" stroke-linejoin="round" stroke-width="1.097" d="M22.84 12.756a5.42 5.42 0 0 0-2.53-3.314l-1.996 3.72 4.526-.406z"/>
        <path stroke="#163150" stroke-linecap="round" stroke-linejoin="round" stroke-width="1.371" d="M25 12.324a7.55 7.55 0 0 0-3.518-4.736l-3.874 6.15L25 12.323z"/>
    </g>
</svg>
